X: 50
T:Glen Allen
R:reel
M:C|
L:1/8
K:G
D|G2DG EGDE|G2BG AGEG|A2EA FAEG|ABcd edBA|
G2DG EGDE|G2BG AGEG|cBcd efge|dBAB G3:|
|:d|g2dg egde|g2bg ageg|a2ea faeg|a2bg agef|
g2dg egde|g2bg aged|cBcd efge| dBAB G3d:|
